!!!COM: Anonymous
!!!CDT: [?]
!!!OTL@@POL: Najświętsza Panno
!!!TXO: Polish
!!!ODT: 
!!!GTL: Hymnbook E
!!!ARL: Opactwo św. Wojciecha, Staniątki 
!!!voices:	3
**kern	**kern	**text	**kern	**text
*staff3	*staff2	*staff2	*staff1	*staff1
*I"Basso	*I"Canto II	*	*I"Canto I	*
=1-	=1-	=1-	=1-	=1-
*clefF4	*clefG2	*	*clefG2	*
*k[]	*k[]	*	*k[]	*
*M3/2	*M3/2	*	*M3/2	*
2G\	2d/	Naj-	2d/	Naj-
2E\	2e/	-święt-	2g/	-święt-
2D\	2f#/	-sza	2a/	-sza
=2	=2	=2	=2	=2
1G	2.g/	Pan-	2.b\	Pan-
.	4f#/	.	4a/	.
2E\	2g/	-no	2g/	-no
=3	=3	=3	=3	=3
1AA	2e/	ślicz-	1cc	ślicz-
.	2f#/	.	.	.
2BB/	2g/	-na	2b\	-na
=4	=4	=4	=4	=4
2C/	1g	Ma-	2b\	Ma-
1D	.	.	1a	-ry-
.	2f#/	-ry-	.	.
=5	=5	=5	=5	=5
1.GG	1.g	-ja	1.g	-ja
=6	=6	=6	=6	=6
2G\	2b\	Wszyt-	2g/	Wszyt-
2G\	2g/	-kie-	2b\	-kie-
2E\	2g/	-go	2cc#\	-go
=7	=7	=7	=7	=7
1D	2.f#/	świa-	1dd	świa-
.	4g/	.	.	.
2D\	2a/	-ta	2dd\	-ta
=8	=8	=8	=8	=8
2G\	2b\	won-	1gg	won-
2A\	2cc#\	.	.	.
2B\	2dd\	-na	2ff#\	-na
=9	=9	=9	=9	=9
2G\	2dd\	li-	2ff#i\	li-
2A\	2dd\	-li-	1ee	-li-
2AA/	2cc#\	.	.	.
=10	=10	=10	=10	=10
1.D	1.dd	-o	1.dd	-o
=11||	=11||	=11||	=11||	=11||
2G\	2b\	Zmi-	2dd\	Zmi-
2C/	2cc\	-łuj	2ee\	-łuj
2GG/	2b\	się	2dd\	się
=12	=12	=12	=12	=12
1AA	1a	zmi-	1cc	zmi-
2F#\	2a/	-łuj	2cc\	-łuj
=13	=13	=13	=13	=13
1G	1g	na-	1b	na-
2C/	2g/	-de	2b\	-de
=14	=14	=14	=14	=14
1.D	1.f#	mną	1.a	mną
=15	=15	=15	=15	=15
2.G\	1b	Racz	1dd	Racz
4F#\	.	.	.	.
4E\	2g/	być	2b\	być
4D\	.	.	.	.
=16	=16	=16	=16	=16
2C/	2e/	w~przy-	1cc	w~przy-
2D\	2f#/	.	.	.
2E\	2g/	-go-	2b\	-go-
=17	=17	=17	=17	=17
2C/	2g/	-dzie	2a/	-dzie
1D	2.g/	ze	1a	ze
.	4f#/	.	.	.
=18	=18	=18	=18	=18
1.GG	1.g	mną.	1.g	mną.
==	==	==	==	==
*-	*-	*-	*-	*-
!!!GTL: Hymnbook E
!!!EFL: 95/117
!!!YEM: Creative Commons CC/BY/NC/SA 4.0
!!!ENC: Marcin Konik
!!!END: 
!!!EED: Marcin Konik
!!!EEV: 
!!!ONB: Translated from MusicXML and edited by Marcin Konik
!!!CharacterEncoding: utf-8
!!!RDF**kern: l=long note in original notation
!!!RDF**kern: i=editorial accidental
!!muse2ps: z14jc180F
